src/images/circuits/portugal.svg

<svg width="41" height="18" viewBox="0 0 41 18" fill="none" xmlns="http://www.w3.org/2000/svg">
<path d="M0.953764 11.9844L3.27016 7.95534C3.28797 7.92437 3.31127 7.89367 3.33796 7.86992C4.25337 7.05524 4.36828 10.4655 5.20321 11.4048C6.05043 12.3579 7.21536 12.5697 8.8039 12.5697C10.3924 12.5697 19.1824 12.6756 22.6772 12.6756C26.172 12.6756 24.0539 11.2989 22.5713 10.5576C21.0886 9.81623 19.0765 8.4395 16.9584 8.86311C14.8404 9.28672 10.1806 10.028 9.01571 9.28672C7.85078 8.5454 7.00356 6.21554 8.27439 5.36832C9.54522 4.5211 12.0869 5.58012 16.1112 6.21554C20.1355 6.85096 21.0886 5.89657 22.6772 3.46081C24.2657 1.02504 27.8664 0.283549 27.9723 1.34258C28.0782 2.4016 27.9723 4.41376 28.1841 6.74362C28.3959 9.07348 31.3612 10.1325 32.7379 10.7679C34.1147 11.4033 34.856 11.721 35.1737 10.8738C35.4914 10.0266 33.797 7.90855 32.9497 6.84952C32.1025 5.79049 32.1025 4.62675 33.4793 3.88543C34.856 3.14411 35.5973 4.09786 36.8681 5.15689C38.139 6.21592 40.3629 10.6638 40.4688 12.7819C40.5747 14.8999 37.3977 17.4416 34.6442 17.4416C32.4625 17.4416 12.7862 17.3724 2.94387 17.3367C2.77105 17.3361 2.62364 17.2264 2.567 17.0631L0.92208 12.3206C0.883451 12.2092 0.895009 12.0866 0.953764 11.9844Z" stroke="#FF0000" stroke-width="1.0113"/>
</svg>

<svg width="41" height="18" fill="none" xmlns="http://www.w3.org/2000/svg"><path d="M.954 11.984 3.27 7.955a.349.349 0 0 1 .068-.085c.915-.815 1.03 2.596 1.865 3.535.847.953 2.012 1.165 3.6 1.165 1.59 0 10.38.106 13.874.106 3.495 0 1.377-1.377-.106-2.118-1.482-.742-3.495-2.118-5.613-1.695-2.118.424-6.777 1.165-7.942.424-1.165-.742-2.012-3.071-.742-3.919 1.271-.847 3.813.212 7.837.848 4.024.635 4.978-.32 6.566-2.755 1.589-2.436 5.19-3.177 5.295-2.118.106 1.059 0 3.07.212 5.4.212 2.33 3.177 3.39 4.554 4.025 1.377.635 2.118.953 2.436.106.317-.847-1.377-2.965-2.224-4.024-.848-1.06-.848-2.223.53-2.965 1.376-.74 2.117.213 3.388 1.272s3.495 5.507 3.6 7.625c.107 2.118-3.07 4.66-5.824 4.66-2.181 0-21.858-.07-31.7-.105a.4.4 0 0 1-.377-.274L.922 12.321a.407.407 0 0 1 .032-.337Z" stroke="red" stroke-width="1.011"/></svg>
